X:1804
T:Bourr\'ee
R:Bourr\'ee
O:France
M:2/4
L:1/8
K:ADor
D2 EF|G2 G2|A>B cB|AG FE| \
D2 EF|G2 G2|A>B cB|A4 :|
K:G
|:\
A>B cB|A>B cB|AG FE|E2 D2| \
A>B cB|A>B cB|AG FA|G2 G2:|


